assets/media/DaneHobrechtIcon(001).svg

<?xml version="1.0" encoding="UTF-8" standalone="no"?>
<svg
   version="1.2"
   width="160"
   height="160"
   viewBox="0 0 4233.3334 4233.3334"
   preserveAspectRatio="xMidYMid"
   fill-rule="evenodd"
   stroke-width="28.222"
   stroke-linejoin="round"
   xml:space="preserve"
   id="svg10436"
   xmlns="http://www.w3.org/2000/svg"
   xmlns:svg="http://www.w3.org/2000/svg">
 <defs
   class="ClipPathGroup"
   id="defs10374"><clipPath
     id="presentation_clip_path"
     clipPathUnits="userSpaceOnUse">
   <rect
   x="0"
   y="0"
   width="4260"
   height="4260"
   id="rect10368" />
  </clipPath></defs>
 <defs
   class="TextShapeIndex"
   id="defs10378" />
 <defs
   class="EmbeddedBulletChars"
   id="defs10410" />
 
 <g
   class="SlideGroup"
   id="g10434">
  <g
   id="g10432">
   <g
   id="container-id1">
    <g
   id="id1"
   class="Slide"
   clip-path="url(#presentation_clip_path)">
     <g
   class="Page"
   id="g10428">
      <g
   class="Graphic"
   id="g10426">
       <g
   id="id3">
        <rect
   class="BoundingBox"
   stroke="none"
   fill="none"
   x="-511"
   y="-511"
   width="5284"
   height="5284"
   id="rect10417" />
        <path
   fill="#4b4b4b"
   stroke="none"
   d="M 2131,-2 C 953,-2 -2,953 -2,2131 -2,3308 953,4263 2131,4263 3308,4263 4263,3308 4263,2131 4263,953 3308,-2 2131,-2 Z m 0,328 c 996,0 1804,808 1804,1805 0,996 -808,1804 -1804,1804 C 1134,3935 326,3127 326,2131 326,1134 1134,326 2131,326 Z"
   id="path10419" />
        <path
   fill="#4b4b4b"
   stroke="none"
   d="m 2409,1372 c -32,56 -79,102 -135,135 -56,32 -120,49 -185,49 -64,0 -128,-17 -184,-49 -56,-33 -103,-79 -135,-135 -33,-56 -50,-120 -50,-185 0,-65 17,-128 50,-184 32,-57 79,-103 135,-136 56,-32 120,-49 184,-49 65,0 129,17 185,49 56,33 103,79 135,136 33,56 50,119 50,184 0,65 -17,129 -50,185 z"
   id="path10421" />
        <path
   fill="#4b4b4b"
   stroke="none"
   d="m 2480,3146 c -2,90 40,115 142,126 l 165,3 v 168 H 1505 v -168 l 180,-3 c 108,-4 134,-46 142,-126 V 2135 c 1,-160 -206,-135 -353,-130 v -166 l 1006,-37 z"
   id="path10423" />
       </g>
      </g>
     </g>
    </g>
   </g>
  </g>
 </g>
</svg>

<?xml version="1.0" encoding="UTF-8"?>
<!DOCTYPE svg PUBLIC "-//W3C//DTD SVG 1.1//EN" "http://www.w3.org/Graphics/SVG/1.1/DTD/svg11.dtd">
<svg version="1.2" width="42.6mm" height="42.6mm" viewBox="0 0 4260 4260" preserveAspectRatio="xMidYMid" fill-rule="evenodd" stroke-width="28.222" stroke-linejoin="round" xmlns="http://www.w3.org/2000/svg" xmlns:ooo="http://xml.openoffice.org/svg/export" xmlns:xlink="http://www.w3.org/1999/xlink" xmlns:presentation="http://sun.com/xmlns/staroffice/presentation" xmlns:smil="http://www.w3.org/2001/SMIL20/" xmlns:anim="urn:oasis:names:tc:opendocument:xmlns:animation:1.0" xmlns:svg="urn:oasis:names:tc:opendocument:xmlns:svg-compatible:1.0" xml:space="preserve">
 <defs class="ClipPathGroup">
  <clipPath id="presentation_clip_path" clipPathUnits="userSpaceOnUse">
   <rect x="0" y="0" width="4260" height="4260"/>
  </clipPath>
  <clipPath id="presentation_clip_path_shrink" clipPathUnits="userSpaceOnUse">
   <rect x="4" y="4" width="4252" height="4252"/>
  </clipPath>
 </defs>
 <defs class="TextShapeIndex">
  <g ooo:slide="id1" ooo:id-list="id3"/>
 </defs>
 <defs class="EmbeddedBulletChars">
  <g id="bullet-char-template-57356" transform="scale(0.00048828125,-0.00048828125)">
   <path d="M 580,1141 L 1163,571 580,0 -4,571 580,1141 Z"/>
  </g>
  <g id="bullet-char-template-57354" transform="scale(0.00048828125,-0.00048828125)">
   <path d="M 8,1128 L 1137,1128 1137,0 8,0 8,1128 Z"/>
  </g>
  <g id="bullet-char-template-10146" transform="scale(0.00048828125,-0.00048828125)">
   <path d="M 174,0 L 602,739 174,1481 1456,739 174,0 Z M 1358,739 L 309,1346 659,739 1358,739 Z"/>
  </g>
  <g id="bullet-char-template-10132" transform="scale(0.00048828125,-0.00048828125)">
   <path d="M 2015,739 L 1276,0 717,0 1260,543 174,543 174,936 1260,936 717,1481 1274,1481 2015,739 Z"/>
  </g>
  <g id="bullet-char-template-10007" transform="scale(0.00048828125,-0.00048828125)">
   <path d="M 0,-2 C -7,14 -16,27 -25,37 L 356,567 C 262,823 215,952 215,954 215,979 228,992 255,992 264,992 276,990 289,987 310,991 331,999 354,1012 L 381,999 492,748 772,1049 836,1024 860,1049 C 881,1039 901,1025 922,1006 886,937 835,863 770,784 769,783 710,716 594,584 L 774,223 C 774,196 753,168 711,139 L 727,119 C 717,90 699,76 672,76 641,76 570,178 457,381 L 164,-76 C 142,-110 111,-127 72,-127 30,-127 9,-110 8,-76 1,-67 -2,-52 -2,-32 -2,-23 -1,-13 0,-2 Z"/>
  </g>
  <g id="bullet-char-template-10004" transform="scale(0.00048828125,-0.00048828125)">
   <path d="M 285,-33 C 182,-33 111,30 74,156 52,228 41,333 41,471 41,549 55,616 82,672 116,743 169,778 240,778 293,778 328,747 346,684 L 369,508 C 377,444 397,411 428,410 L 1163,1116 C 1174,1127 1196,1133 1229,1133 1271,1133 1292,1118 1292,1087 L 1292,965 C 1292,929 1282,901 1262,881 L 442,47 C 390,-6 338,-33 285,-33 Z"/>
  </g>
  <g id="bullet-char-template-9679" transform="scale(0.00048828125,-0.00048828125)">
   <path d="M 813,0 C 632,0 489,54 383,161 276,268 223,411 223,592 223,773 276,916 383,1023 489,1130 632,1184 813,1184 992,1184 1136,1130 1245,1023 1353,916 1407,772 1407,592 1407,412 1353,268 1245,161 1136,54 992,0 813,0 Z"/>
  </g>
  <g id="bullet-char-template-8226" transform="scale(0.00048828125,-0.00048828125)">
   <path d="M 346,457 C 273,457 209,483 155,535 101,586 74,649 74,723 74,796 101,859 155,911 209,963 273,989 346,989 419,989 480,963 531,910 582,859 608,796 608,723 608,648 583,586 532,535 482,483 420,457 346,457 Z"/>
  </g>
  <g id="bullet-char-template-8211" transform="scale(0.00048828125,-0.00048828125)">
   <path d="M -4,459 L 1135,459 1135,606 -4,606 -4,459 Z"/>
  </g>
  <g id="bullet-char-template-61548" transform="scale(0.00048828125,-0.00048828125)">
   <path d="M 173,740 C 173,903 231,1043 346,1159 462,1274 601,1332 765,1332 928,1332 1067,1274 1183,1159 1299,1043 1357,903 1357,740 1357,577 1299,437 1183,322 1067,206 928,148 765,148 601,148 462,206 346,322 231,437 173,577 173,740 Z"/>
  </g>
 </defs>
 <g>
  <g id="id2" class="Master_Slide">
   <g id="bg-id2" class="Background"/>
   <g id="bo-id2" class="BackgroundObjects"/>
  </g>
 </g>
 <g class="SlideGroup">
  <g>
   <g id="container-id1">
    <g id="id1" class="Slide" clip-path="url(#presentation_clip_path)">
     <g class="Page">
      <g class="Graphic">
       <g id="id3">
        <rect class="BoundingBox" stroke="none" fill="none" x="-511" y="-511" width="5284" height="5284"/>
        <path fill="rgb(75,75,75)" stroke="none" d="M 2131,-2 C 953,-2 -2,953 -2,2131 -2,3308 953,4263 2131,4263 3308,4263 4263,3308 4263,2131 4263,953 3308,-2 2131,-2 L 2131,-2 Z M 2131,326 C 3127,326 3935,1134 3935,2131 3935,3127 3127,3935 2131,3935 1134,3935 326,3127 326,2131 326,1134 1134,326 2131,326 L 2131,326 Z"/>
        <path fill="rgb(75,75,75)" stroke="none" d="M 2409,1372 C 2377,1428 2330,1474 2274,1507 2218,1539 2154,1556 2089,1556 2025,1556 1961,1539 1905,1507 1849,1474 1802,1428 1770,1372 1737,1316 1720,1252 1720,1187 1720,1122 1737,1059 1770,1003 1802,946 1849,900 1905,867 1961,835 2025,818 2089,818 2154,818 2218,835 2274,867 2330,900 2377,946 2409,1003 2442,1059 2459,1122 2459,1187 2459,1252 2442,1316 2409,1372 Z"/>
        <path fill="rgb(75,75,75)" stroke="none" d="M 2480,3146 C 2478,3236 2520,3261 2622,3272 L 2787,3275 2787,3443 1505,3443 1505,3275 1685,3272 C 1793,3268 1819,3226 1827,3146 L 1827,2135 C 1828,1975 1621,2000 1474,2005 L 1474,1839 2480,1802 Z"/>
       </g>
      </g>
     </g>
    </g>
   </g>
  </g>
 </g>
</svg>
